X: 312	% 86
T: Mud On The Wheel
S: Viola Ruth "Pioneer Western Folk Tunes" 1948 p.31 #2
R: reel
Z: 2019 John Chambers <jc:trillian.mit.edu>
M: 2/4
L: 1/16
K: A
V: 1 name="86"
|:\
KMA2-KA2 KA,4 | A,ECE A,2(EF) | =GBAG EDEF | =GBAG E4 |\
KMA2-KA2 KA,4 | A,ECE A,4 | AcBA GABG | A4 A4 :|
|:\
[e2c2][e2c2] efed | cdef e4 | GABc dfed | cBcd [e4c4] |\
[e2c2][e2c2] efed | cdef e4 | abag ecAF | E2A2 A4 :|
